X:1
T:Emma
T:Juan Alais (1844 - 1914)
T:Mazurka - No.5, Op.1 "Seis Piezas Faciles"
%%score ( 1 2 3 )
L:1/8
M:3/4
K:A
V:1 treble-8 nm="Guitare classique"
V:2 treble-8 
V:3 treble-8 
V:1
"^Intro.""_" [Ee]2 [F^d]2 [Gd]2 | [Ac]2 [B^d]2 [Ac]2 | [GB]2 [FA]2 [^DA]2 | %3
 [EG]2"^Hr.12" e'2 z2 |:"^Mazurka" (3!1!c!2!d!3!^d !4!e2"^₵5" a2 | (3!1!g!2!a!3!^a !4!b2 !4!b2 | %6
 (3ga^a b2 !4!^b2 | !4!c'2"^₵5" a2 a2 | (3!2!a!1!g!4!b !1!a2 f2 | a2 [eg]2 [eg]2 | %10
{/a} g2 [df]2 [df]2 |{/g} f2 [ce]2 [ce]2 | (3cd^d e2 a2 | (3ga^a b2 b2 | (3ga^a b2 ^b2 | %15
 c'2"^₵5" a2 a2 | (!3!g!1!f)e!2!dcB | !2!fe!3!dcB!2!A | G!2!fe!3!dcB | A2"^₵5" [cea]2 z2 :: %20
 !1!G!3!A !4!^AB !3!cB | !3!c2 B2 B2 | gf e^d cB | B2 A2 A2 | FG AB c^d |"^C2" !4!e2 !4!^d2 d>e | %26
 ^d2 c2 c>d | c2 B2 B2 | GA ^AB cB | c2 B2 B2 | gf fe e^d | ^d2 c2 c2 | ^Ac e=g fe | %33
 B^g fe !4!^dc | Bc BA GF | E2 [GBe]2 z2 :| (3cd^d e2 a2 | (3ga^a b2 b2 | (3ga^a b2 ^b2 | %39
 c'2 a2 a2 | (3agb a2 f2 | a2 [eg]2 [eg]2 |{/a} g2 [df]2 [df]2 |{/g} f2 [ce]2 [ce]2 | %44
 (3cd^d e2 a2 | (3ga^a b2 b2 | (3ga^a b2 ^b2 | c'2 a2 a2 | (gf)edcB | (fe)dcBA | GfedcB | %51
 A2 [cea]2 z2!fine! |:[K:D] z ABcde | ^e2 [Adf]2 [Adf]2 | f2 g2 f2 | !4!a2 !2!g2 !-(!!2!g!-)!b | %56
 (!2!b!1!^a) (!4!c'!1!b) (!2!ge) | !3!d2 !2!c2 c2 | cd ^de fg |{/g} !4!b2 !1!a2 a2 | z ABcde | %61
 ^e2 [Adf]2 [Adf]2 | f2 g2 f2 | a2 g2 !-(!g!-)!b | (b^a) (c'b) (ge) | d2 c2 c2 | AB cd ef | %67
 d2"^₵7" [dfd']2 z2!D.C.! :| %68
V:2
 E,2 E,2 E,2 | E,2 E,2 E,2 | E,2 E,2 E,2 | E,2 x4 |: A,6 | E,6 | E,4 E,2 | A,6 | A,4 A,2 | E,6 | %10
 E,6 | A,6 | A,6 | E,6 | E,4 E,2 | A,6 | D6 | !1!E6 | E,4 E,2 | A,2 A,2 z2 :: E,6 | E,6 | E,6 | %23
 B,6 | B, z z2 z2 | B,6 | F,6 | E,6 | E,6 | E,6 | E,6 | A,6 | ^A,6 | !2!B,6 | B,6 | E,2 E,2 z2 :| %36
 A,6 | E,6 | E,4 E,2 | A,6 | A,4 A,2 | E,6 | E,6 | A,6 | A,6 | E,6 | E,4 E,2 | A,6 | D6 | E6 | %50
 E,4 E,2 | A,2 A,2 z2 |:[K:D] D6 | D6 | ^D6 | !1!E6 | E,6 | A,6 | A,4 A,2 | D6 | D6 | D6 | ^D6 | %63
 E6 | E,6 | A,6 | A,4 A,2 | D2 D2 z2 :| %68
V:3
 x6 | x6 | x6 | x6 |: x2 x2 [ce]2 | x2 x2 [de]2 | x6 | x2 [ce]2 [ce]2 | x6 | x6 | x6 | x6 | %12
 x2 x2 [ce]2 | x2 x2 [de]2 | x6 | x2 [ce]2 [ce]2 | x6 | x6 | x6 | x6 :: x2 !2!E2 E2 | %21
 x2 !2![EG]2 [EG]2 | x2 [EG]2 [EG]2 | x2 ^D2 D2 | x6 | x2 [FA]2 [FA]2 | x2 [FA]2 [FA]2 | %27
 x2 [EG]2 [EG]2 | x2 E2 E2 | x2 [EG]2 [EG]2 | x2 [EG]2 [EG]2 | x2 [EA]2 [EA]2 | x2 ^A2 A2 | %33
 x2 G2 G2 | x2 ^D2 z2 | x6 :| x2 x2 [ce]2 | x2 x2 [de]2 | x6 | x2 [ce]2 [ce]2 | x6 | x6 | x6 | x6 | %44
 x2 x2 [ce]2 | x2 x2 [de]2 | x6 | x2 [ce]2 [ce]2 | x6 | x6 | x6 | x6 |:[K:D] x6 | x6 | %54
 x2 [AB]2 [AB]2 | x2 [GB]2 [GB] z | x2 [GB]2 [GB]2 | x2 !1![EG]2 [EG]2 | x2 x4 | x2 [df]2 [df]2 | %60
 x6 | x6 | x2 [AB]2 [AB]2 | x2 [GB]2 [GB] z | x2 [GB]2 [GB]2 | x2 [EG]2 [EG]2 | x2 x4 | x6 :| %68

